_includes/icons/color-spa-flower.svg

<svg fill="#666" height="50" viewBox="0 0 48 48" width="50" xmlns="http://www.w3.org/2000/svg"><g fill="#ffd54f"><path d="m31.273438 11.273438c0 4.015625-7.273438 12.726562-7.273438 12.726562s-7.273437-8.710937-7.273437-12.726562 3.257812-7.273438 7.273437-7.273438 7.273438 3.257813 7.273438 7.273438z"/><path d="m14.144531 13.148438c3.820313 1.242187 9.855469 10.851562 9.855469 10.851562s-10.53125 4.226563-14.351562 2.984375c-3.820313-1.242187-5.910157-5.34375-4.667969-9.164062 1.238281-3.820313 5.34375-5.910157 9.164062-4.671875z"/><path d="m10.636719 30.023438c2.359375-3.25 13.363281-6.023438 13.363281-6.023438s.765625 11.320313-1.597656 14.570313c-2.359375 3.25-6.910156 3.96875-10.160156 1.609375s-3.96875-6.910157-1.605469-10.15625z"/><path d="m25.597656 38.570313c-2.363281-3.25-1.597656-14.570313-1.597656-14.570313s11.003906 2.773438 13.363281 6.023438c2.363282 3.25 1.644532 7.796875-1.605468 10.15625s-7.800782 1.640625-10.160157-1.609375z"/><path d="m38.351563 26.984375c-3.820313 1.242188-14.351563-2.984375-14.351563-2.984375s6.035156-9.609375 9.855469-10.851562c3.820312-1.238282 7.925781.851562 9.164062 4.671875 1.242188 3.820312-.847656 7.921875-4.667968 9.164062z"/></g><g fill="#ffca28"><path d="m20 11.273438c0 6.160156 4 12.726562 4 12.726562s-7.273437-8.710937-7.273437-12.726562 3.257812-7.273438 7.273437-7.273438c0 0-4 1.628906-4 7.273438z"/><path d="m10.660156 23.871094c5.859375 1.902344 13.339844.128906 13.339844.128906s-10.53125 4.226563-14.351562 2.984375c-3.820313-1.242187-5.910157-5.34375-4.667969-9.164062 0 0 .308594 4.308593 5.679687 6.050781z"/><path d="m19.753906 36.648438c3.621094-4.984375 4.246094-12.648438 4.246094-12.648438s.765625 11.320313-1.597656 14.570313c-2.359375 3.25-6.910156 3.96875-10.160156 1.609375 0 0 4.195312 1.035156 7.511718-3.53125z"/><path d="m34.71875 31.945313c-3.621094-4.984375-10.71875-7.945313-10.71875-7.945313s11.003906 2.773438 13.363281 6.023438c2.363282 3.25 1.644532 7.796875-1.605468 10.15625 0 0 2.277343-3.667969-1.039063-8.234375z"/><path d="m34.867188 16.261719c-5.859375 1.90625-10.867188 7.738281-10.867188 7.738281s6.035156-9.609375 9.855469-10.851562c3.820312-1.238282 7.925781.851562 9.164062 4.671875 0 0-2.78125-3.300782-8.152343-1.558594z"/></g><path d="m26.273438 15.996094c0 1.257812-2.273438 8.003906-2.273438 8.003906s-2.273437-6.746094-2.273437-8.003906c0-1.253906 1.019531-2.273438 2.273437-2.273438s2.273438 1.019532 2.273438 2.273438z" fill="#e91e63"/><path d="m17.089844 19.363281c1.195312.390625 6.910156 4.636719 6.910156 4.636719s-7.121094.074219-8.3125-.3125c-1.195312-.386719-1.847656-1.667969-1.460937-2.863281.386718-1.191406 1.671875-1.847656 2.863281-1.460938z" fill="#e91e63"/><path d="m17.457031 29.140625c.738282-1.019531 6.542969-5.140625 6.542969-5.140625s-2.128906 6.796875-2.867187 7.8125c-.738282 1.015625-2.15625 1.238281-3.171875.5s-1.242188-2.160156-.503907-3.171875z" fill="#e91e63"/><path d="m26.867188 31.8125c-.738282-1.015625-2.867188-7.8125-2.867188-7.8125s5.804688 4.121094 6.542969 5.140625c.738281 1.015625.511719 2.433594-.503906 3.171875s-2.4375.511719-3.171875-.5z" fill="#e91e63"/><path d="m32.3125 23.6875c-1.191406.386719-8.3125.3125-8.3125.3125s5.714844-4.246094 6.910156-4.636719c1.191407-.386718 2.476563.265625 2.863282 1.460938.386718 1.195312-.265625 2.476562-1.460938 2.863281z" fill="#e91e63"/></svg>

<svg xmlns="http://www.w3.org/2000/svg" viewBox="0 0 48 48" width="50" height="50" fill="#666"><path d="M 31.273438 11.273438 C 31.273438 15.289063 24 24 24 24 C 24 24 16.726563 15.289063 16.726563 11.273438 C 16.726563 7.257813 19.984375 4 24 4 C 28.015625 4 31.273438 7.257813 31.273438 11.273438 Z" fill="#ffd54f"/><path d="M 14.144531 13.148438 C 17.964844 14.390625 24 24 24 24 C 24 24 13.46875 28.226563 9.648438 26.984375 C 5.828125 25.742188 3.738281 21.640625 4.980469 17.820313 C 6.21875 14 10.324219 11.910156 14.144531 13.148438 Z" fill="#ffd54f"/><path d="M 10.636719 30.023438 C 12.996094 26.773438 24 24 24 24 C 24 24 24.765625 35.320313 22.402344 38.570313 C 20.042969 41.820313 15.492188 42.539063 12.242188 40.179688 C 8.992188 37.820313 8.273438 33.269531 10.636719 30.023438 Z" fill="#ffd54f"/><path d="M 25.597656 38.570313 C 23.234375 35.320313 24 24 24 24 C 24 24 35.003906 26.773438 37.363281 30.023438 C 39.726563 33.273438 39.007813 37.820313 35.757813 40.179688 C 32.507813 42.539063 27.957031 41.820313 25.597656 38.570313 Z" fill="#ffd54f"/><path d="M 38.351563 26.984375 C 34.53125 28.226563 24 24 24 24 C 24 24 30.035156 14.390625 33.855469 13.148438 C 37.675781 11.910156 41.78125 14 43.019531 17.820313 C 44.261719 21.640625 42.171875 25.742188 38.351563 26.984375 Z" fill="#ffd54f"/><path d="M 20 11.273438 C 20 17.433594 24 24 24 24 C 24 24 16.726563 15.289063 16.726563 11.273438 C 16.726563 7.257813 19.984375 4 24 4 C 24 4 20 5.628906 20 11.273438 Z" fill="#ffca28"/><path d="M 10.660156 23.871094 C 16.519531 25.773438 24 24 24 24 C 24 24 13.46875 28.226563 9.648438 26.984375 C 5.828125 25.742188 3.738281 21.640625 4.980469 17.820313 C 4.980469 17.820313 5.289063 22.128906 10.660156 23.871094 Z" fill="#ffca28"/><path d="M 19.753906 36.648438 C 23.375 31.664063 24 24 24 24 C 24 24 24.765625 35.320313 22.402344 38.570313 C 20.042969 41.820313 15.492188 42.539063 12.242188 40.179688 C 12.242188 40.179688 16.4375 41.214844 19.753906 36.648438 Z" fill="#ffca28"/><path d="M 34.71875 31.945313 C 31.097656 26.960938 24 24 24 24 C 24 24 35.003906 26.773438 37.363281 30.023438 C 39.726563 33.273438 39.007813 37.820313 35.757813 40.179688 C 35.757813 40.179688 38.035156 36.511719 34.71875 31.945313 Z" fill="#ffca28"/><path d="M 34.867188 16.261719 C 29.007813 18.167969 24 24 24 24 C 24 24 30.035156 14.390625 33.855469 13.148438 C 37.675781 11.910156 41.78125 14 43.019531 17.820313 C 43.019531 17.820313 40.238281 14.519531 34.867188 16.261719 Z" fill="#ffca28"/><path d="M 26.273438 15.996094 C 26.273438 17.253906 24 24 24 24 C 24 24 21.726563 17.253906 21.726563 15.996094 C 21.726563 14.742188 22.746094 13.722656 24 13.722656 C 25.253906 13.722656 26.273438 14.742188 26.273438 15.996094 Z" fill="#e91e63"/><path d="M 17.089844 19.363281 C 18.285156 19.753906 24 24 24 24 C 24 24 16.878906 24.074219 15.6875 23.6875 C 14.492188 23.300781 13.839844 22.019531 14.226563 20.824219 C 14.613281 19.632813 15.898438 18.976563 17.089844 19.363281 Z" fill="#e91e63"/><path d="M 17.457031 29.140625 C 18.195313 28.121094 24 24 24 24 C 24 24 21.871094 30.796875 21.132813 31.8125 C 20.394531 32.828125 18.976563 33.050781 17.960938 32.3125 C 16.945313 31.574219 16.71875 30.152344 17.457031 29.140625 Z" fill="#e91e63"/><path d="M 26.867188 31.8125 C 26.128906 30.796875 24 24 24 24 C 24 24 29.804688 28.121094 30.542969 29.140625 C 31.28125 30.15625 31.054688 31.574219 30.039063 32.3125 C 29.023438 33.050781 27.601563 32.824219 26.867188 31.8125 Z" fill="#e91e63"/><path d="M 32.3125 23.6875 C 31.121094 24.074219 24 24 24 24 C 24 24 29.714844 19.753906 30.910156 19.363281 C 32.101563 18.976563 33.386719 19.628906 33.773438 20.824219 C 34.160156 22.019531 33.507813 23.300781 32.3125 23.6875 Z" fill="#e91e63"/></svg>
